svgs/sharp-regular/headset.svg

<svg xmlns="http://www.w3.org/2000/svg" viewBox="0 0 512 512"><!--! Font Awesome Pro 6.6.0 by @fontawesome - https://fontawesome.com License - https://fontawesome.com/license (Commercial License) Copyright 2024 Fonticons, Inc. --><path d="M48 256C48 141.1 141.1 48 256 48s208 93.1 208 208l0 184.1L320 440l0-24-80 0c-26.5 0-48 21.5-48 48s21.5 48 48 48l80 0 0-24 168 .1 24 0 0-24L512 256C512 114.6 397.4 0 256 0S0 114.6 0 256l0 40 0 24 48 0 0-24 0-40zm70.1-80l-7 7L87 207l-7 7 0 9.9 0 56 0 80 0 24 24 0 80 0 24 0 0-24 0-160 0-24-24 0-56 0-9.9 0zm9.9 57.9l9.9-9.9 22.1 0 0 112-32 0 0-56 0-46.1zM384 176l-56 0-24 0 0 24 0 160 0 24 24 0 80 0 24 0 0-24 0-80 0-56 0-9.9-7-7-24-24-7-7-9.9 0zm-9.9 48l9.9 9.9 0 46.1 0 56-32 0 0-112 22.1 0z"/></svg>

<svg xmlns="http://www.w3.org/2000/svg" viewBox="0 0 512 512"><!--! Font Awesome Pro 6.4.2 by @fontawesome - https://fontawesome.com License - https://fontawesome.com/license (Commercial License) Copyright 2023 Fonticons, Inc. --><path d="M48 256C48 141.1 141.1 48 256 48s208 93.1 208 208V440.1L320 440V416H240c-26.5 0-48 21.5-48 48s21.5 48 48 48h80V488l168 .1 24 0v-24V256C512 114.6 397.4 0 256 0S0 114.6 0 256v40 24H48V296 256zm70.1-80l-7 7L87 207l-7 7V224v56 80 24h24 80 24V360 200 176H184 128h-9.9zm9.9 57.9l9.9-9.9H160V336H128V280 233.9zM384 176H328 304v24V360v24h24 80 24V360 280 224v-9.9l-7-7-24-24-7-7H384zm-9.9 48l9.9 9.9V280v56H352V224h22.1z"/></svg>
